X:27
T:Cotton Eyed Joe
M:2/4
L:1/16
Z: Jason R. Fruit <jasonfruit@gmail.com>
K:A
EF | A2Ac BAFG | AGAB c2cB | A2Ac BAFG | ABAF E2EF |
A2Ac BAFG | AGAB c2cd | efec BAFG | ABAF E2 :|
|: cB | ABcd ecec | f2e2 a4 | fecA BAFG | ABAF E2E2 |
ABcd ecec | f2e2 a4 | fecA BAFG | ABAF E2 :|